suite-common/icons/assets/icons/arrowUpRight.svg

<svg xmlns="http://www.w3.org/2000/svg" xml:space="preserve" fill="none" viewBox="0 0 21 20">
  <path fill="#000" fill-rule="evenodd" d="M7.245 4.267a.77.77 0 0 0-.437.254c-.126.15-.163.255-.165.472a.72.72 0 0 0 .317.616l.163.114 3.289.009 3.289.009-4.432 4.436c-3.625 3.628-4.439 4.46-4.474 4.571a.8.8 0 0 0 .091.66c.203.29.64.401.947.242.08-.042 1.909-1.846 4.509-4.448 2.407-2.407 4.387-4.377 4.402-4.377.014 0 .026 1.457.026 3.239 0 3.518-.009 3.359.196 3.565a.76.76 0 0 0 .837.166.8.8 0 0 0 .402-.451c.027-.093.035-1.384.028-4.372l-.01-4.241-.106-.15a.8.8 0 0 0-.279-.239l-.174-.089-4.148-.006c-2.282-.002-4.204.007-4.271.02"/>
</svg>

<svg xmlns="http://www.w3.org/2000/svg" xml:space="preserve" fill="none" viewBox="0 0 21 20"><path d="M7.245 4.267 C 7.068 4.304,6.917 4.391,6.808 4.521 C 6.682 4.671,6.645 4.776,6.643 4.993 C 6.640 5.246,6.754 5.466,6.960 5.609 L 7.123 5.723 10.412 5.732 L 13.701 5.741 9.269 10.177 C 5.644 13.805,4.830 14.637,4.795 14.748 C 4.728 14.960,4.766 15.237,4.886 15.408 C 5.089 15.698,5.526 15.809,5.833 15.650 C 5.913 15.608,7.742 13.804,10.342 11.202 C 12.749 8.795,14.729 6.825,14.744 6.825 C 14.758 6.825,14.770 8.282,14.770 10.064 C 14.770 13.582,14.761 13.423,14.966 13.629 C 15.188 13.851,15.530 13.919,15.803 13.795 C 15.978 13.715,16.155 13.517,16.205 13.344 C 16.232 13.251,16.240 11.960,16.233 8.972 L 16.223 4.731 16.117 4.581 C 16.053 4.490,15.943 4.396,15.838 4.342 L 15.664 4.253 11.516 4.247 C 9.234 4.245,7.312 4.254,7.245 4.267 " stroke="none" fill-rule="evenodd" fill="black"></path></svg>
